X: 100095
M: C|
L: 1/8
K: D
u(dB) |\
(fe)fg (fa)gf | (ed)cd (ef)ge | (fe)fg (fa)gf | (ed)cB A2ag |
(fe)fg (fa)gf | (ed)cd (ef)ge | (fa)fd (eg)ec | d2f2 d2 :|


